X: 1
T: Mist In The Morning
M: 6/8
L: 1/8
R: jig
K: Gmaj
|:BAB G2D|G2G G3|BAB G2B|A2B cBA|
BAB G2D|G2G G3|d3 dcB|A2B cBA:|
|:Bcd ded| ded ded|Bcd dBd| e2f g3|
Bcd ded|ded dBd|gfe dcB|A2B cBA:|G3
